app/img/_src/main/advantages-of-lab/adv-2.svg

<svg width="60" height="60" viewBox="0 0 60 60" fill="none" xmlns="http://www.w3.org/2000/svg">
<g clip-path="url(#clip0)">
<path d="M58.8675 9.11884L59.6575 8.32889C60.1151 7.87127 60.1151 7.12925 59.6575 6.67152C59.1999 6.21403 58.4579 6.21403 58.0001 6.67152L57.2102 7.46147L56.4207 6.67199C56.201 6.45227 55.9029 6.32875 55.5921 6.32875H54.3031L48.3176 0.343238C48.0978 0.123514 47.7998 0 47.489 0H4.22132C1.89424 0 0.000976562 1.89314 0.000976562 4.22034V26.1811C0.000976562 28.5082 1.89424 30.4015 4.22132 30.4015H14.4306L7.56522 37.2669C6.76812 38.064 6.32914 39.1239 6.32914 40.2512C6.32914 41.3784 6.76812 42.4382 7.56522 43.2355L23.0938 58.764C23.8909 59.5611 24.9507 60.0001 26.0781 60.0001C27.2054 60.0001 28.2652 59.5611 29.0623 58.764L40.6927 47.1338C41.1504 46.6762 41.1504 45.9341 40.6927 45.4764C40.2351 45.019 39.493 45.0189 39.0354 45.4764L27.4049 57.1067C27.0506 57.4612 26.5793 57.6563 26.0781 57.6563C25.5768 57.6563 25.1055 57.4612 24.7512 57.1067L9.22247 41.5781C8.8681 41.2237 8.67287 40.7524 8.67287 40.2512C8.67287 39.7499 8.8681 39.2787 9.22247 38.9243L39.4741 8.67271H55.1068L55.5531 9.11895L52.8432 11.8288C52.3842 11.6087 51.8706 11.4853 51.3285 11.4853C49.39 11.4853 47.8129 13.0624 47.8129 15.0009C47.8129 16.9394 49.39 18.5165 51.3285 18.5165C53.267 18.5165 54.8441 16.9394 54.8441 15.0009C54.8441 14.4588 54.7206 13.945 54.5005 13.4861L57.2103 10.7763L57.6565 11.2226V26.8552L46.4929 38.0189C46.0353 38.4765 46.0353 39.2186 46.4929 39.6763C46.9505 40.1338 47.6926 40.1338 48.1503 39.6763L59.6571 28.1694C59.8769 27.9496 60.0004 27.6516 60.0004 27.3408V10.7369C60.0004 10.4262 59.8769 10.1282 59.6571 9.90832L58.8675 9.11884ZM21.0451 21.0273C20.3987 21.0273 19.8729 20.5015 19.8729 19.8551C19.8729 19.2086 20.3987 18.6827 21.0451 18.6827C21.6915 18.6827 22.2174 19.2086 22.2174 19.8551C22.2174 20.5014 21.6915 21.0273 21.0451 21.0273ZM38.9887 6.32887C38.6779 6.32887 38.3798 6.45238 38.1601 6.67211L24.532 20.3C24.5505 20.1541 24.5612 20.0058 24.5612 19.855C24.5612 17.9162 22.984 16.3389 21.0453 16.3389C19.1066 16.3389 17.5293 17.9162 17.5293 19.855C17.5293 21.7937 19.1065 23.3709 21.0453 23.3709C21.1961 23.3709 21.3444 23.3602 21.4903 23.3417L16.7744 28.0576H4.22132C3.18656 28.0576 2.3447 27.2158 2.3447 26.181V4.22034C2.3447 3.18559 3.18656 2.34372 4.22132 2.34372H47.0035L50.9887 6.32887H38.9887ZM51.3285 16.1725C50.6823 16.1725 50.1566 15.6468 50.1566 15.0006C50.1566 14.3545 50.6823 13.8288 51.3285 13.8288C51.5959 13.8288 51.842 13.9198 52.0395 14.0712C52.0705 14.1118 52.1036 14.1514 52.1406 14.1884C52.1776 14.2255 52.2172 14.2585 52.2578 14.2896C52.4092 14.487 52.5002 14.7331 52.5002 15.0005C52.5004 15.6468 51.9747 16.1725 51.3285 16.1725Z" fill="#8888D3"/>
<path d="M38.976 34.6678C39.2868 34.6678 39.5849 34.5443 39.8046 34.3245L42.4562 31.6729C42.9138 31.2152 42.9138 30.4732 42.4562 30.0155C41.9986 29.558 41.2565 29.558 40.7989 30.0155L38.976 31.8386L33.1755 26.0382C32.718 25.5807 31.9759 25.5807 31.5183 26.0382C31.0606 26.4958 31.0606 27.2378 31.5183 27.6956L38.1474 34.3245C38.3672 34.5443 38.6653 34.6678 38.976 34.6678Z" fill="#8888D3"/>
<path d="M48.0909 24.3809C47.6333 23.9234 46.8913 23.9234 46.4336 24.3809L44.942 25.8724L43.2848 24.2153L44.7763 22.7237C45.2339 22.2661 45.2339 21.5241 44.7763 21.0664C44.3187 20.6089 43.5767 20.6089 43.119 21.0664L41.6274 22.5579L39.9702 20.9007L41.4617 19.4091C41.9193 18.9515 41.9194 18.2095 41.4617 17.7518C41.0041 17.2944 40.2621 17.2943 39.8045 17.7518L37.4843 20.0719C37.2646 20.2917 37.1411 20.5898 37.1411 20.9006C37.1411 21.2113 37.2646 21.5093 37.4843 21.7292L44.1134 28.3582C44.3421 28.5869 44.6421 28.7014 44.942 28.7014C45.2419 28.7014 45.5419 28.5869 45.7706 28.3582L48.0908 26.038C48.5485 25.5805 48.5485 24.8385 48.0909 24.3809Z" fill="#8888D3"/>
<path d="M35.1295 37.8545C35.706 38.1484 36.4118 37.9189 36.7057 37.3422C36.9995 36.7656 36.7701 36.06 36.1933 35.7662L27.4099 31.2916C26.9576 31.0611 26.4083 31.1481 26.0494 31.5071C25.6904 31.866 25.6034 32.4154 25.8339 32.8676L30.3085 41.6511C30.5155 42.0575 30.9268 42.2914 31.3536 42.2912C31.5325 42.2912 31.7143 42.2501 31.8845 42.1633C32.4612 41.8695 32.6905 41.1639 32.3969 40.5872L32.0376 39.8818L34.4243 37.4951L35.1295 37.8545ZM30.9188 37.6861L29.559 35.0167L32.2285 36.3766L30.9188 37.6861Z" fill="#8888D3"/>
<path d="M23.8949 46.9196C23.4373 47.3772 23.4372 48.1192 23.8949 48.577C24.1238 48.8057 24.4237 48.9202 24.7235 48.9202C25.0234 48.9202 25.3234 48.8057 25.5522 48.577L27.2095 46.9197C28.5803 45.549 28.5803 43.3187 27.2095 41.9479C25.9067 40.645 23.8279 40.5815 22.448 41.7552C22.4051 41.7877 22.3634 41.8221 22.3244 41.8613L22.2377 41.9479C22.0163 42.1692 21.7221 42.2911 21.409 42.2911C21.096 42.2911 20.8018 42.1692 20.5804 41.9479C20.1235 41.491 20.1235 40.7475 20.5804 40.2905L22.2377 38.6333C22.6953 38.1756 22.6954 37.4336 22.2377 36.9759C21.7801 36.5185 21.038 36.5184 20.5804 36.9759L18.9231 38.6331C17.5523 40.0039 17.5523 42.2343 18.9231 43.6051C19.5872 44.2691 20.4699 44.6347 21.4089 44.6347C22.3467 44.6347 23.2284 44.27 23.8923 43.6075C23.8932 43.6066 23.8941 43.6059 23.8949 43.6051C24.3517 43.1481 25.0953 43.1481 25.5522 43.6051C25.7735 43.8265 25.8954 44.1206 25.8954 44.4336C25.8954 44.7467 25.7735 45.041 25.5522 45.2622L23.8949 46.9196Z" fill="#8888D3"/>
<path d="M20.0785 7.56513C19.515 7.24708 18.8001 7.44583 18.482 8.0095L10.9235 21.3985C10.6053 21.9621 10.8042 22.6769 11.3678 22.995C11.5499 23.0978 11.7476 23.1467 11.9429 23.1467C12.3518 23.1467 12.749 22.9322 12.9644 22.5507L20.5229 9.16167C20.841 8.59801 20.6422 7.88317 20.0785 7.56513Z" fill="#8888D3"/>
<path d="M14.669 10.5465C14.669 8.60774 13.0918 7.03052 11.1531 7.03052C9.21431 7.03052 7.63696 8.60774 7.63696 10.5465C7.63696 12.4852 9.21419 14.0626 11.1529 14.0626C13.0917 14.0626 14.669 12.4852 14.669 10.5465ZM9.98071 10.5465C9.98071 9.90009 10.5065 9.37427 11.1529 9.37427C11.7993 9.37427 12.3252 9.90009 12.3252 10.5465C12.3252 11.193 11.7993 11.7188 11.1529 11.7188C10.5065 11.7188 9.98071 11.193 9.98071 10.5465Z" fill="#8888D3"/>
<path d="M43.5922 41.4041C43.2828 41.4041 42.9816 41.5294 42.7636 41.7475C42.5457 41.9654 42.4203 42.2677 42.4203 42.5759C42.4203 42.8842 42.5457 43.1866 42.7636 43.4044C42.9816 43.6224 43.2828 43.7478 43.5922 43.7478C43.9004 43.7478 44.2027 43.6225 44.4207 43.4044C44.6386 43.1866 44.764 42.8842 44.764 42.5759C44.764 42.2677 44.6386 41.9654 44.4207 41.7475C44.2027 41.5296 43.9004 41.4041 43.5922 41.4041Z" fill="#8888D3"/>
</g>
<defs>
<clipPath id="clip0">
<rect width="60" height="60" fill="white"/>
</clipPath>
</defs>
</svg>

<svg width="60" height="60" fill="none" xmlns="http://www.w3.org/2000/svg"><g clip-path="url(#clip0)" fill="#8888D3"><path d="M58.867 9.119l.79-.79A1.172 1.172 0 0058 6.672l-.79.79-.79-.79a1.172 1.172 0 00-.828-.343h-1.289L48.318.343A1.172 1.172 0 0047.489 0H4.221a4.225 4.225 0 00-4.22 4.22v21.961a4.225 4.225 0 004.22 4.22h10.21l-6.866 6.866A4.193 4.193 0 006.33 40.25c0 1.127.44 2.187 1.236 2.985l15.529 15.528A4.193 4.193 0 0026.078 60a4.193 4.193 0 002.984-1.236l11.63-11.63a1.172 1.172 0 10-1.657-1.658l-11.63 11.63c-.354.355-.826.55-1.327.55s-.973-.195-1.327-.55L9.222 41.579a1.864 1.864 0 01-.55-1.327c0-.501.196-.972.55-1.327L39.474 8.673h15.633l.446.446-2.71 2.71a3.494 3.494 0 00-1.515-.344 3.52 3.52 0 00-3.515 3.516 3.52 3.52 0 003.515 3.516A3.52 3.52 0 0054.844 15c0-.542-.123-1.056-.343-1.515l2.71-2.71.446.447v15.632L46.492 38.02a1.172 1.172 0 001.657 1.657L59.657 28.17c.22-.22.343-.517.343-.828V10.737c0-.31-.123-.609-.343-.829l-.79-.79zM21.045 21.027a1.173 1.173 0 010-2.344 1.173 1.173 0 010 2.344zM38.99 6.33c-.311 0-.61.123-.829.343L24.532 20.3a3.52 3.52 0 00-3.487-3.961 3.52 3.52 0 00-3.516 3.516 3.52 3.52 0 003.961 3.487l-4.716 4.716H4.221a1.879 1.879 0 01-1.876-1.877V4.221c0-1.035.842-1.877 1.876-1.877h42.783l3.985 3.985h-12zm12.34 9.843a1.173 1.173 0 01-1.172-1.171c0-.646.525-1.172 1.172-1.172.267 0 .513.09.71.242a1.16 1.16 0 00.219.219 1.172 1.172 0 01-.93 1.882z"/><path d="M38.976 34.668c.31 0 .609-.124.829-.343l2.651-2.652a1.172 1.172 0 00-1.657-1.657l-1.823 1.823-5.8-5.8a1.172 1.172 0 00-1.658 1.657l6.63 6.628c.22.22.517.344.828.344zM48.09 24.38a1.172 1.172 0 00-1.656 0l-1.492 1.492-1.657-1.657 1.491-1.491a1.172 1.172 0 00-1.657-1.658l-1.492 1.492L39.97 20.9l1.492-1.492a1.172 1.172 0 00-1.658-1.657l-2.32 2.32a1.172 1.172 0 000 1.657l6.63 6.63a1.168 1.168 0 001.657 0l2.32-2.321c.457-.457.457-1.2 0-1.657zM35.13 37.855a1.172 1.172 0 001.063-2.089l-8.783-4.474a1.172 1.172 0 00-1.576 1.576l4.474 8.783a1.171 1.171 0 102.089-1.064l-.36-.705 2.387-2.387.706.36zm-4.211-.169l-1.36-2.67 2.67 1.36-1.31 1.31zm-7.024 9.234a1.172 1.172 0 001.657 1.657l1.657-1.657a3.52 3.52 0 000-4.972 3.52 3.52 0 00-4.761-.193 1.161 1.161 0 00-.124.106l-.086.087a1.164 1.164 0 01-.829.343 1.173 1.173 0 01-.829-2l1.658-1.658a1.172 1.172 0 00-1.658-1.657l-1.657 1.657a3.52 3.52 0 000 4.972 3.493 3.493 0 002.486 1.03c.938 0 1.82-.365 2.483-1.027l.003-.003a1.173 1.173 0 012 .829c0 .313-.122.607-.343.828l-1.657 1.658zM20.078 7.565a1.172 1.172 0 00-1.596.444L10.924 21.4a1.172 1.172 0 102.04 1.152l7.559-13.39a1.172 1.172 0 00-.445-1.596zm-5.409 2.981a3.52 3.52 0 00-3.516-3.515 3.52 3.52 0 00-3.516 3.516 3.52 3.52 0 003.516 3.516 3.52 3.52 0 003.516-3.517zm-4.688 0a1.173 1.173 0 012.344 0c0 .647-.526 1.173-1.172 1.173a1.173 1.173 0 01-1.172-1.172zm33.611 30.858c-.31 0-.61.125-.828.343a1.18 1.18 0 00-.344.829 1.179 1.179 0 001.172 1.172c.308 0 .61-.125.829-.344a1.18 1.18 0 00.343-.828c0-.308-.125-.61-.343-.828a1.181 1.181 0 00-.829-.344z"/></g><defs><clipPath id="clip0"><path fill="#fff" d="M0 0h60v60H0z"/></clipPath></defs></svg>
